X:1
T:(unknown title)
M:2/4
L:1/4
K:G
 z D| G G| B, D| G G| G3/2 G/2| G G/2G/2| D G/2G/2| A A| A3/2 A/2|\
 G G| B, D| E c| B3/2 A/2| G D/2D/2| E F/2F/2| G G| G3/2- G/4G/4| d B/2B/2|\
 c A/2A/2| B G| G2| d B/2B/2| c d/2d/2| e A| A2| d B/2B/2| c A| B G/2G/2|\
 A/2A/2 F/2F/2| G D| E F| G2|

